18x18/actions/symbol-smaller.svg

<svg xmlns="http://www.w3.org/2000/svg" width="18" height="18"><defs><style id="current-color-scheme" type="text/css"></style></defs><path style="fill:currentColor;color:#444" d="M8 4a4 4 0 0 0-4 4 4 4 0 0 0 4 4 4 4 0 0 0 4-4 4 4 0 0 0-4-4zm0 1a3 3 0 0 1 3 3 3 3 0 0 1-3 3 3 3 0 0 1-3-3 3 3 0 0 1 3-3zm8 1v4l-3-2zM8 3l2-3H6zm0 10 2 3H6zM0 6v4l3-2z" transform="translate(1 1)"/></svg>

<svg xmlns="http://www.w3.org/2000/svg" width="18" height="18" version="1.1">
 <defs>
  <style id="current-color-scheme" type="text/css">
   .ColorScheme-Text { color:#444444; } .ColorScheme-Highlight { color:#4285f4; } .ColorScheme-NeutralText { color:#ff9800; } .ColorScheme-PositiveText { color:#4caf50; } .ColorScheme-NegativeText { color:#f44336; }
  </style>
 </defs>
 <g transform="translate(1,1)">
  <path style="fill:currentColor" class="ColorScheme-Text" d="M 8,4 A 4,4 0 0 0 4,8 4,4 0 0 0 8,12 4,4 0 0 0 12,8 4,4 0 0 0 8,4 Z M 8,5 A 3,3 0 0 1 11,8 3,3 0 0 1 8,11 3,3 0 0 1 5,8 3,3 0 0 1 8,5 Z M 16,6 V 10 L 13,8 Z M 8,3 10,0 H 6 Z M 8,13 10,16 H 6 Z M 0,6 V 10 L 3,8 Z"/>
 </g>
</svg>
